projects/vfh1/img/icons/people.svg

<svg viewBox="0 0 53 29" fill="none" xmlns="http://www.w3.org/2000/svg">
<circle cx="25.4383" cy="6.85431" r="6.13086" stroke="#42474D" stroke-width="1.4469"/>
<circle cx="10.2612" cy="8.61801" r="5.64127" stroke="#42474D" stroke-width="1.4469"/>
<path d="M5.38112 27.4172H15.6503C15.6503 24.458 15.6503 21.0366 15.6503 17.6153C15.9042 16.2515 16.2901 15.5625 17.3841 14.6878C14.2254 14.6878 7.27632 14.6878 4.74939 14.6878C2.22245 14.6878 1.16956 17.2337 0.958984 18.5066V27.4172H5.38112ZM5.38112 27.4172V21.689" stroke="#42474D" stroke-width="1.36854"/>
<circle r="5.64127" transform="matrix(-1 0 0 1 42.9146 8.61801)" stroke="#42474D" stroke-width="1.4469"/>
<path d="M47.7947 27.4172H37.5255C37.5255 24.458 37.5255 21.0366 37.5255 17.6153C37.2716 16.2515 36.8857 15.5625 35.7917 14.6878C38.9504 14.6878 45.8995 14.6878 48.4264 14.6878C50.9533 14.6878 52.0062 17.2337 52.2168 18.5066V27.4172H47.7947ZM47.7947 27.4172V21.689" stroke="#42474D" stroke-width="1.36854"/>
<path d="M32.3243 27.4172H37.1886C37.1886 25.3609 37.1886 20.5629 37.1886 17.8212C37.1886 15.0795 34.8722 13.9371 33.7141 13.7086C30.2395 13.7086 22.5956 13.7086 19.8159 13.7086C17.0363 13.7086 15.8781 16.4503 15.6465 17.8212V27.4172H20.5108M32.3243 27.4172V21.2484M32.3243 27.4172H20.5108M20.5108 27.4172V21.2484" stroke="#42474D" stroke-width="1.4469"/>
</svg>

<svg viewBox="0 0 53 29" fill="none" xmlns="http://www.w3.org/2000/svg"><circle cx="25.438" cy="6.854" r="6.131" stroke="#42474D" stroke-width="1.447"/><circle cx="10.261" cy="8.618" r="5.641" stroke="#42474D" stroke-width="1.447"/><path d="M5.381 27.417h10.27v-9.802c.253-1.363.64-2.052 1.733-2.927H4.75c-2.527 0-3.58 2.546-3.79 3.819v8.91h4.422zm0 0V21.69" stroke="#42474D" stroke-width="1.369"/><circle r="5.641" transform="matrix(-1 0 0 1 42.915 8.618)" stroke="#42474D" stroke-width="1.447"/><path d="M47.795 27.417h-10.27v-9.802c-.253-1.363-.64-2.052-1.733-2.927h12.634c2.527 0 3.58 2.546 3.79 3.819v8.91h-4.421zm0 0V21.69" stroke="#42474D" stroke-width="1.369"/><path d="M32.324 27.417h4.865v-9.596c0-2.742-2.317-3.884-3.475-4.112H19.816c-2.78 0-3.938 2.741-4.17 4.112v9.596h4.865m11.813 0v-6.169m0 6.17H20.511m0 0v-6.17" stroke="#42474D" stroke-width="1.447"/></svg>
